dist/svgs/twitter.svg

<svg xmlns="http://www.w3.org/2000/svg" viewBox="0 0 512 512"><path d="M453 111q17 0 31-6t28-10q-14 24-36 41-4 3-8 6.5t-8 6.5q0 18-.5 35t-4.5 32q-20 89-71.5 148T249 449q-15 5-33.5 8t-38.5 4-39.5-.5T101 455q-17-5-32.5-9.5T39 435l-15-7.5L9 419q-6-4-9-5 4 0 21.5-2.5t38.5-6 40.5-8T127 389q6-4 14.5-8.5T155 370q-16 0-31-5-26-9-41.5-26T57 297q4 0 10.5 1t14 1 13.5-1 9-3q-10 0-18.5-4.5T70 282q-21-14-35.5-35.5T20 192l15 5 18 6q3 1 7 2t7-1q-4-5-9.5-8.5T48 187q-14-17-23-41t-1-54q2-8 5-14.5T35 65h1q2 3 4.5 5.5T45 76q13 16 32 30 29 23 57.5 37t70.5 25q11 2 22.5 4t24.5 2q-4-11-3-25t4-24q14-51 59-71 5-2 11-3.5t12-3.5q4-1 7-1t6-1q31 0 49.5 9.5T431 78q14-1 29-7t25-11q3-2 6.5-3.5T498 53q-6 16-14 28t-20 21q-2 2-5 4.5t-6 4.5z"/></svg>

<?xml version="1.0" encoding="UTF-8" standalone="no"?><svg   xmlns:svg="http://www.w3.org/2000/svg"   xmlns="http://www.w3.org/2000/svg"   version="1.1"   width="512"   height="512"   viewBox="0 0 512 512">  <path     d="M453 111Q470 111 484 105T512 95Q498 119 476 136Q472 139 468 142.5T460 149Q460 167 459.5 184T455 216Q435 305 383.5 364T249 449Q234 454 215.5 457T177 461T137.5 460.5T101 455Q84 450 68.5 445.5T39 435L24 427.5T9 419Q3 415 0 414Q4 414 21.5 411.5T60 405.5T100.5 397.5T127 389Q133 385 141.5 380.5T155 370Q139 370 124 365Q98 356 82.5 339T57 297Q61 297 67.5 298T81.5 299T95 298T104 295Q94 295 85.5 290.5T70 282Q49 268 34.5 246.5T20 192L35 197L53 203Q56 204 60 205T67 204Q63 199 57.5 195.5T48 187Q34 170 25 146T24 92Q26 84 29 77.5T35 65H36Q38 68 40.5 70.5T45 76Q58 92 77 106Q106 129 134.5 143T205 168Q216 170 227.5 172T252 174Q248 163 249 149T253 125Q267 74 312 54Q317 52 323 50.5T335 47Q339 46 342 46T348 45Q379 45 397.5 54.5T431 78Q445 77 460 71T485 60Q488 58 491.5 56.5T498 53Q492 69 484 81T464 102Q462 104 459 106.5T453 111z"     id="twitter" /></svg>
